assets/icons8-close.svg

<svg xmlns="http://www.w3.org/2000/svg"  viewBox="0 0 50 50" width="50px" height="50px"><path d="M 40.783203 7.2714844 A 2.0002 2.0002 0 0 0 39.386719 7.8867188 L 25.050781 22.222656 L 10.714844 7.8867188 A 2.0002 2.0002 0 0 0 9.2792969 7.2792969 A 2.0002 2.0002 0 0 0 7.8867188 10.714844 L 22.222656 25.050781 L 7.8867188 39.386719 A 2.0002 2.0002 0 1 0 10.714844 42.214844 L 25.050781 27.878906 L 39.386719 42.214844 A 2.0002 2.0002 0 1 0 42.214844 39.386719 L 27.878906 25.050781 L 42.214844 10.714844 A 2.0002 2.0002 0 0 0 40.783203 7.2714844 z"/></svg>

<svg xmlns="http://www.w3.org/2000/svg" width="50" height="50"><path d="M40.783 7.271a2 2 0 0 0-1.396.616L25.05 22.223 10.715 7.887a2 2 0 0 0-1.436-.608 2 2 0 0 0-1.392 3.436L22.223 25.05 7.887 39.387a2 2 0 1 0 2.828 2.828L25.05 27.879l14.336 14.336a2 2 0 1 0 2.828-2.828L27.879 25.05l14.336-14.336a2 2 0 0 0-1.432-3.444z"/></svg>
